static/img/bsair-dev.svg

<svg width="48" height="48" viewBox="0 0 48 48" fill="none" xmlns="http://www.w3.org/2000/svg">
<circle cx="24" cy="24" r="24" fill="white"/>
<path d="M19.1216 28.0636H10.8194L9.18088 32H6L13.4686 15H16.5017L24 32H20.7747L19.1143 28.0636H19.1216ZM18.0958 25.5853L14.9666 18.1582L11.8598 25.5853H18.0958Z" fill="#595757"/>
<path d="M26 15.7485C26 14.769 27.0602 14 28.5003 14C29.9398 14 31 14.7255 31 15.6759C31 16.6989 29.9688 17.497 28.5003 17.497C27.0312 17.497 26 16.7279 26 15.7485ZM26.5253 19.5502H30.4355V32H26.5253V19.5502Z" fill="#595757"/>
<path d="M41 20V22.6436C40.7183 22.6021 40.4845 22.5744 40.2507 22.5744C37.7937 22.5744 36.2388 23.8201 36.2388 26.2422V32H33V20.1315H36.0774V21.8685C37.012 20.6229 38.6958 20 41 20Z" fill="#595757"/>
</svg>

<svg xmlns="http://www.w3.org/2000/svg" width="48" height="48" fill="none" viewBox="0 0 48 48"><circle cx="24" cy="24" r="24" fill="#fff"/><path fill="#595757" d="M19.122 28.064h-8.303L9.181 32H6l7.469-17h3.033L24 32h-3.225l-1.66-3.936zm-1.026-2.479-3.13-7.427-3.106 7.427zM26 15.749c0-.98 1.06-1.749 2.5-1.749s2.5.726 2.5 1.676c0 1.023-1.031 1.821-2.5 1.821s-2.5-.77-2.5-1.748m.525 3.801h3.91V32h-3.91zM41 20v2.644a5 5 0 0 0-.75-.07c-2.456 0-4.011 1.246-4.011 3.668V32H33V20.131h3.077v1.738C37.012 20.623 38.696 20 41 20"/></svg>
